X:59
T:Rival Milk Maids THO4.059, The
M:6/8
L:1/8
Z:vmp. Peter Dunk 2010/11.from a transcription by Fynn Titford-Mock 2007
B:Thompson's Compleat Collection of 200 Favourite Country Dances Volume IV.
Q:3/8=100
K:G
G|G>AG B>GB|d>Bd e>fg|g>fe d>cB|A>BG A>FD|\
G>DG B>GB|d>Bd e>fg|{a/}f>ed A>d^c|d3-d2:|
d|d>ed b2 b|c>dc a2 a|c>ec B>dB|A>BG A>FD|\
[c2C2]e e>dc|d>BG D2 F|G3-G2:|
